X: 173
T: Wednesday Night Waltz
S: Viola Ruth "Pioneer Western Folk Tunes" 1948 p.17 #3 (and top 3/4 of p.18)
R: waltz
Z: 2019 John Chambers <jc:trillian.mit.edu>
N: The first two sections of the tune end with 7-bar phrases.
N: In all the bars like bar 1, the final ^g is written as a trailing grace note, which isn't widely supported in ABC software.
N: All the glissandi have a "squiggle" connecting the notes, which ABC most software can't do correctly.
M: 3/4
L: 1/8
K: D
V: 1 name="48"
d"^gliss"([fd] |\
([a6f6]) ^g) | ([a6f6] ^g) | [a3f3] (b[af][fd]) | [d4F4] [c2E2] |\
("^gliss"[B2G2] [d3B3]) e | ([d4B4] [B2G2]) | ([A6F6] | [A2F2]) [d2F2] "^gliss"([f2d2] |
([a6f6]) ^g) | ([a6f6] ^g) | ([a2f2] [d'2f2]) ([c'f][fd]) | [d4F4] [c2E2] |\
(B2 ([e4G4-]) | [e4G4]) [f2A2] | "^^"ed"^^"ef"^^"ed | "^^"cB A"^^"d "^gliss"([f2d2] |
([a6f6]) ^g) | ([a6f6] ^g) | [a3f3] b"^gliss"([af][fd]) | ([d4F4] [c2E2]) |\
"^gliss"[B2G2] [d3B2] e | [d4B4] [B2G2] | ([A6F6] | [A4F4]) [A2F22] |
"^^"BG AB df | "^^"ab"^^"af"^^"dB | A2 ^G2 A2 | [f6d6] |\
e2 c2 A2 | [d6F6-] | [d2F2] D2 E2 ||
"_Smooth"F6 | (E2 D2 E2) | F6 | A,6 |\
"^gliss"(B,4 D2) | (D4 E2) | F6- | F4- F2 |
(E4 D2) | E4 D2 | "^gliss"(F6 | A,6) |\
(B,4 C2) | (D4 F2) | E6- | E2 (D2 E2) |
F6 | (E2 D2 E2) | "^gliss"(F6 | A,4-) A,2 |\
"^gliss"(B,4 D2) | D4 (E2 | F6-) | F4- MF2 |
(E4 D2) | (E4 D2) | "^gliss"(F6 | A,6) |\
"^gliss"(B,4 D2) | (D4 E2) | D6- | D2 ||
d2 [f2d2] |\
([a6f6] ^g) | ([a6f6] ^g) | [a3f3] (b[af][fd]) | [d4F4] [c2E2] |\
[B2G2] [d3B3] e | ([d4B4] [B2G2]) | [A6F6-] | [A2F2] [d2F2] [f2d2] |
([a6f6] ^g) | ([a6f6] ^g) | [a2f2] [d'2f2] ([af][fd]) | [d4F4] [c2E2] |\
B2 [e4-G4] | [e4G4] [f2A2] | "^^"ed"^^"ef"^^"ed | cB Ad [f2d2] |
([a6f6] ^g) | ([a6f6] ^g) | [a3f3] (b[af][fd]) | [d4F4] [c2E2] |\
[B2G2] ([d3B3] e) | ([d4B4] [B2G2]) | [A6-F6-] | [A4F4]  [A2F2] |
"^^"BG "^^"AB "^^"df | "^^"ab"^^"af"^^"dB | A2 ^G2 A2 | [f6d6] |\
e4 cA | [d2F2] [f2d2] [a2f2] | d'6- | d'2 z2 z2 |]

%%sep 1 1 500

